!!!COM: Bach, Johann Sebastian
!!!OPR: Joh. Seb. Bachs vierstimmige Choralges‰nge
!!!XEN: Four-part Chorales
!!!OTL: 59. Es woll' uns Gott gen‰dig sein
!!!SCT: BWV 312
!!!SCA: Thematisch-systematisches Verzeichnis der musikalischen Werke Johann Sebastian Bach: Bach-Werke-Verzeichnis (Schmieder)
!!!YOR: Bach Gesellschaft Edition xxxix
!!!ENC: Steven Rasmussen
!!!CDT: 1685/3//-1750/7/28/
!!!OCY: Deutschland
!!!YEC: Copyright (c) 1994, 2000 Center for Computer Assisted Research in the Humanities
!!!YEM: Rights to all derivative editions reserved
!!!YEN: United States of America
**kern	**silbe	**kern	**silbe	**kern	**silbe	**kern	**silbe
*I:[BASSO]	*I:[BASSO]	*I:[TENORE]	*I:[TENORE]	*I:[ALTO]	*I:[ALTO]	*I:[SOPRANO]	*I:[SOPRANO]
*>[A,A,B]	*	*>[A,A,B]	*	*>[A,A,B]	*	*>[A,A,B]	*
*>A	*	*>A	*	*>A	*	*>A	*
*clefF4	*	*clefGv2	*	*clefG2	*	*clefG2	*
*k[]	*	*k[]	*	*k[]	*	*k[]	*
*a:	*	*a:	*	*a:	*	*a:	*
*M4/4	*	*M4/4	*	*M4/4	*	*M4/4	*
4E	.	4e	Essein	4g#	Essein	4b	Essein
=1	=1	=1	=1	=1	=1	=1	=1
4.A	.	8eL	woll'Ant-	8aL	woll'Ant-	4cc	woll'Ant-
.	.	8cJ	.	8e	.	.	.
.	.	8dL	uns-litz	8f	.	4b	uns-litz
8G	.	8eJ	.	[8eJ	.	.	.
4.F	.	4A	Gottuns	8e]	.	4a	Gottuns
.	.	.	.	8d	uns-litz	.	.
.	.	4G	ge-mit	[4g	Gottuns	8bL	ge-mit
8E	.	.	.	.	.	8ccJ	.
=2	=2	=2	=2	=2	=2	=2	=2
4.D	.	4A	-n√§-hel-	8gL]	.	(4dd	-n√§-hel-
.	.	.	.	8fJ	.	.	.
.	.	4B-	.	8gL	ge-mit	4ee	.
8C#	.	.	.	8eJ	.	.	.
4D	.	8AL	.	4f	-n√§-hel-	4dd)	.
.	.	8G#J	.	.	.	.	.
4AA	.	4A	-dig-lem	8eL	-dig-lem	4cc	-dig-lem
.	.	.	.	8d#J	.	.	.
=3	=3	=3	=3	=3	=3	=3	=3
2E;	.	(4A	.	2e;	.	2b;	seinSchein
.	.	4G#;)	.	.	.	.	.
4r	.	4r	.	4r	.	4r	.
4D	.	8AL	.	4f	.	4dd	under-
.	.	8BJ	.	.	.	.	.
=4	=4	=4	=4	=4	=4	=4	=4
4A	.	4c	.	8eL	.	4cc	sei--leucht'
.	.	.	.	8f#J	.	.	.
8GL	.	4d	.	4g	.	4b	-nenzum
8FJ	.	.	.	.	.	.	.
4E	.	8eL	.	4g	.	8ccL	Se-ew'-
.	.	8dJ	.	.	.	8bJ	.
8FL	.	4c	.	4fn	.	4a	-gen-gen
8EJ	.	.	.	.	.	.	.
=5	=5	=5	=5	=5	=5	=5	=5
(8DL	.	(8B-	.	4.e	.	(4g	ge-Le-
8C#J	.	4A	.	.	.	.	.
4D)	.	.	.	.	.	4f)	.
.	.	8Bn)	.	16dLL	.	.	.
.	.	.	.	16cJJ	.	.	.
4E;	.	4G#;	.	4B;	.	4e;	-ben;-ben,
=:|!	=:|!	=:|!	=:|!	=:|!	=:|!	=:|!	=:|!
*>B	*	*>B	*	*>B	*	*>B	*
4E	.	4B	.	8eL	.	4g	dass
.	.	.	.	8dJ	.	.	.
=6	=6	=6	=6	=6	=6	=6	=6
8AA	wir	8AL	.	8cL	.	4f	wir
8BB	er-	[8GJ	.	[8dJ	.	.	.
[4C	-ken-	8G]	.	8d]	.	4e	er-
.	.	8A	.	8c	.	.	.
8CL]	.	4F	.	8AL	.	4d	-ken-
8BBJ	.	.	.	[8GJ	.	.	.
8CL	-nen	4E	.	8G]	.	8eL	-nen
8BBJ	.	.	.	8G#	.	8dJ	.
=7	=7	=7	=7	=7	=7	=7	=7
8AAL	.	4E	.	4.A	.	8cL	sei-
8GGJ	.	.	.	.	.	8dJ	.
4FF	.	4A	.	.	.	4d	-ne
.	.	.	.	8B	.	.	.
4EE;	.	(8AL	.	(8cL	.	4e;	Werk'
.	.	8G#;J)	.	8B;J)	.	.	.
4E	.	4G#	.	4e	.	4b	und,
=8	=8	=8	=8	=8	=8	=8	=8
4.AA	.	16ALL	.	8eL	.	4cc	was
.	.	16BJJ	.	.	.	.	.
.	.	4c	.	8aJ	.	.	.
.	.	.	.	8gL	.	8bL	ihn
8BB	.	8d	.	8fJ	.	8aJ	.
4.C	.	8eL	.	4e	.	4g	liebt,
.	.	8EJ	.	.	.	.	.
.	.	8F#L	.	4d	.	8aL	auf
8BB	.	8G#J	.	.	.	8bJ	.
=9	=9	=9	=9	=9	=9	=9	=9
8AAL	.	4.A	.	8cL	.	4cc	Er-
8A	.	.	.	8eJ	.	.	.
8F	.	.	.	4a	.	4dd	.
8DJ	.	8f	.	.	.	.	.
4E;	.	4e;	.	(8aL	.	4b;	-den,
.	.	.	.	8g#;J)	.	.	.
4C	.	8GL	.	8gnL	.	4ee	und
.	.	8AJ	.	8f#J	.	.	.
=10	=10	=10	=10	=10	=10	=10	=10
4G	.	8BL	.	4g	.	8ddL	Je-
.	.	8cJ	.	.	.	8ccJ	.
8GGL	.	4d	.	4g	.	8bL	-sus
8AAJ	.	.	.	.	.	8ccJ	.
8BB	Chri-	4d	.	4.g	.	4dd	Chri-
8C	-stus	.	.	.	.	.	.
[4D	Heil	4d	.	.	.	4a	-stus
.	.	.	.	8f	.	.	.
=11	=11	=11	=11	=11	=11	=11	=11
8DL]	.	8eL	.	4.e	.	4g	Heil
8C#J	.	8AJ	.	.	.	.	.
4D	und	4A	.	.	.	4f	und
.	.	.	.	8d	.	.	.
4AA;	.	4A;	.	(8dL	.	4e;	St√§rk'
.	.	.	.	8c#;J)	.	.	.
4D	.	4F	.	8AL	.	4d	be-
.	.	.	.	8BJ	.	.	.
=12	=12	=12	=12	=12	=12	=12	=12
8CL	.	4.E	.	4c	.	4g	-kannt
8BBJ	.	.	.	.	.	.	.
4AA	.	.	.	4c	.	4a	den
.	.	8F#	.	.	.	.	.
(4E	.	(4G	Hei-	8BL	.	8bL	Hei-
.	.	.	.	8eJ	.	8ccJ	.
8F#L	.	8AL	.	8dL	.	4dd	-den
8G#J	.	8BJ	.	8eJ	.	.	.
=13	=13	=13	=13	=13	=13	=13	=13
8A)	.	8c)	.	8e	.	4cc	wer-
8C	.	8e	-den	4a	.	.	.
8DL	.	8fL	wer-	.	.	4b	.
8EJ	.	8eJ	.	8g#	.	.	.
4F;	.	4c;	-den	4a;	.	4a;	-den
8EL	.	4e	.	8gnL	.	4cc	und
8F#J	.	.	.	8aJ	.	.	.
=14	=14	=14	=14	=14	=14	=14	=14
4.G	.	4d	.	8bL	.	4b	sie
.	.	.	.	8gJ	.	.	.
.	.	8c#L	.	8eL	.	4a	zu
8F	.	8dJ	.	8fJ	.	.	.
8EL	.	8eL	.	8BL	.	8gL	Gott
8DJ	.	8BJ	.	8dJ	.	8fJ	.
8CL	be-	4cn	be-	8gL	be-	8eL	be-
8AAJ	.	.	.	8fJ	.	8fJ	.
=15	=15	=15	=15	=15	=15	=15	=15
8BBL	-keh-	8dL	-keh-	8fL	-keh-	4g	-keh-
8C#	.	[8A	.	[8e	.	.	.
8D	.	8A]	.	8e]	.	4f	.
8GG#J	.	[8BJ	.	[8dJ	.	.	.
8AAL	.	8BL]	.	8dL]	.	[2e	-ren.
8BB	.	8EJ	.	16eL	.	.	.
.	.	.	.	16dJJ	.	.	.
8Cn	.	[4A	.	4c	.	.	.
8DJ	.	.	.	.	.	.	.
=16	=16	=16	=16	=16	=16	=16	=16
2.E;	-ren.	4A]	.	2.B;	-ren.	2.e;]	.
.	.	8G#L	.	.	.	.	.
.	.	8F#J	.	.	.	.	.
.	.	4G#;	-ren.	.	.	.	.
==|!	==|!	==|!	==|!	==|!	==|!	==|!	==|!
*-	*-	*-	*-	*-	*-	*-	*-
!!!RWG: Key is interpreted using the Humdrum key tool.
!!!END: 1994/05/25
!!!EMD: Converted from MuseData to Humdrum Dec 19, 2000, by Andreas Kornstaedt using muse2kern.
!!!EED: Craig Stuart Sapp
!!!EEV: 2024/03/31
!!!ONB: Some non-unicode characters
